X:1
T:Title
%%score { 1 | 2 }
L:1/8
Q:1/4=256
M:4/2
K:C
V:1 treble nm="Grand Piano"
V:2 bass 
V:1
 [EG]8 [_E^F]4 [=EG]4 | [Fc]4 [FA]4 [EG]8 | D8 E4 F4 | E16 | F8 E4 A4 | G4 [Ec]4 A8 | %6
w: L.~G.~Hayne * *||||||
 D8 [B,E]4 [B,F]4 | [CE]16 | [Cc]8 [FB]4 [Ee]4 | [Gd]4 [DFB]4 [B,DG]8 | [CGc]8 [FB]4 [Ee]4 | %11
w: |||||
[M:10/4] [Gd]4 [CG]4 [CA]12 |[M:8/4] [CD]8[K:bass] [G,B,E]4 [F,B,D]4 | [E,C]16 |] %14
w: |||
V:2
 [C,G,]8 [C,A,]4 [C,G,]4 | [C,A,]4 [C,B,]4 [C,C]8 | [F,A,C]8 [G,B,]4 [G,B,D]4 | [C,G,C]16 | %4
 [A,C]8 [G,C]4 [F,CF]4 | [E,C]4 [C,G,]4 [F,A,C]8 | [G,C]8 [G,,G,]4 [G,,G,]4 | [C,G,]16 | %8
 [E,G,]8 [D,F,]4 [C,G,]4 | [B,,G,]4 D,4 G,4 F,4 | E,8 [D,F,]4 [C,G,]4 |[M:10/4] [B,,G,]4 E,4 F,12 | %12
[M:8/4] G,8 G,,4 G,,4 | C,16 |] %14

